public/assets/icons/github-brands 1.svg

<svg width="80" height="87" viewBox="0 0 80 87" fill="none" xmlns="http://www.w3.org/2000/svg">
<g clip-path="url(#clip0)">
<path d="M31.4407 75.2887C31.4407 75.6676 31.0048 75.9707 30.4552 75.9707C29.8298 76.0275 29.394 75.7244 29.394 75.2887C29.394 74.9098 29.8298 74.6066 30.3794 74.6066C30.948 74.5498 31.4407 74.8529 31.4407 75.2887ZM25.5468 74.4361C25.4141 74.815 25.7931 75.2508 26.3617 75.3645C26.8544 75.5539 27.423 75.3645 27.5367 74.9855C27.6504 74.6066 27.2903 74.1709 26.7218 74.0004C26.229 73.8678 25.6794 74.0572 25.5468 74.4361ZM33.9234 74.1141C33.3738 74.2467 32.9948 74.6066 33.0516 75.0424C33.1085 75.4213 33.6012 75.6676 34.1698 75.535C34.7194 75.4023 35.0984 75.0424 35.0415 74.6635C34.9847 74.3035 34.473 74.0572 33.9234 74.1141ZM46.3935 1.51562C20.1077 1.51562 0 21.465 0 47.7422C0 68.7525 13.2282 86.7316 32.123 93.0594C34.5488 93.4951 35.4016 91.9984 35.4016 90.767C35.4016 89.5924 35.3448 83.1131 35.3448 79.1346C35.3448 79.1346 22.0786 81.9764 19.2927 73.4889C19.2927 73.4889 17.1323 67.9758 14.0242 66.5549C14.0242 66.5549 9.68427 63.5805 14.3274 63.6373C14.3274 63.6373 19.0464 64.0162 21.6427 68.5252C25.7931 75.8381 32.7484 73.7352 35.4585 72.4848C35.8944 69.4535 37.1262 67.3506 38.4907 66.1002C27.8968 64.9256 17.2081 63.391 17.2081 45.1656C17.2081 39.9557 18.6484 37.3412 21.6806 34.0068C21.1879 32.7754 19.577 27.698 22.1734 21.143C26.1343 19.9115 35.25 26.2582 35.25 26.2582C39.0403 25.1973 43.1149 24.6479 47.1516 24.6479C51.1883 24.6479 55.2629 25.1973 59.0532 26.2582C59.0532 26.2582 68.169 19.8926 72.1298 21.143C74.7262 27.717 73.1153 32.7754 72.6226 34.0068C75.6548 37.3602 77.5121 39.9746 77.5121 45.1656C77.5121 63.4479 66.3496 64.9066 55.7556 66.1002C57.4992 67.5969 58.9774 70.4387 58.9774 74.8908C58.9774 81.2754 58.9206 89.1756 58.9206 90.7291C58.9206 91.9605 59.7923 93.4572 62.1992 93.0215C81.1508 86.7316 94 68.7525 94 47.7422C94 21.465 72.6794 1.51562 46.3935 1.51562ZM18.421 66.858C18.1746 67.0475 18.2315 67.4832 18.5536 67.8432C18.8569 68.1463 19.2927 68.2789 19.5391 68.0326C19.7855 67.8432 19.7286 67.4074 19.4065 67.0475C19.1032 66.7443 18.6673 66.6117 18.421 66.858ZM16.3742 65.3234C16.2415 65.5697 16.431 65.8729 16.8101 66.0623C17.1133 66.2518 17.4923 66.1949 17.625 65.9297C17.7577 65.6834 17.5681 65.3803 17.1891 65.1908C16.8101 65.0771 16.5069 65.134 16.3742 65.3234ZM22.5145 72.068C22.2113 72.3143 22.325 72.8826 22.7609 73.2426C23.1968 73.6783 23.7464 73.7352 23.9927 73.432C24.2391 73.1857 24.1254 72.6174 23.7464 72.2574C23.3294 71.8217 22.7609 71.7648 22.5145 72.068ZM20.354 69.283C20.0508 69.4725 20.0508 69.965 20.354 70.4008C20.6573 70.8365 21.169 71.026 21.4153 70.8365C21.7185 70.5902 21.7185 70.0977 21.4153 69.6619C21.15 69.2262 20.6573 69.0367 20.354 69.283Z" fill="#D1E2E2"/>
</g>
<defs>
<clipPath id="clip0">
<rect width="80" height="86.7606" fill="white"/>
</clipPath>
</defs>
</svg>

<svg width="80" height="87" fill="none" xmlns="http://www.w3.org/2000/svg"><g clip-path="url(#a)"><path d="M31.44 75.289c0 .379-.435.682-.985.682-.625.056-1.061-.247-1.061-.682 0-.38.436-.682.985-.682.569-.057 1.062.246 1.062.682zm-5.893-.853c-.133.379.246.815.815.928.492.19 1.061 0 1.175-.379.113-.378-.247-.814-.815-.985-.493-.132-1.043.057-1.175.436zm8.376-.322c-.55.133-.928.493-.871.928.056.38.55.626 1.118.493.55-.133.928-.493.871-.871-.056-.36-.568-.607-1.118-.55zm12.47-72.598C20.109 1.516 0 21.465 0 47.742c0 21.01 13.228 38.99 32.123 45.317 2.426.436 3.279-1.06 3.279-2.292 0-1.175-.057-7.654-.057-11.632 0 0-13.266 2.841-16.052-5.646 0 0-2.16-5.513-5.269-6.934 0 0-4.34-2.975.303-2.918 0 0 4.72.38 7.316 4.888 4.15 7.313 11.105 5.21 13.816 3.96.435-3.031 1.667-5.134 3.032-6.385-10.594-1.174-21.283-2.709-21.283-20.934 0-5.21 1.44-7.825 4.473-11.16-.493-1.23-2.104-6.308.492-12.863 3.961-1.232 13.077 5.115 13.077 5.115 3.79-1.06 7.865-1.61 11.902-1.61 4.036 0 8.11.55 11.901 1.61 0 0 9.116-6.365 13.077-5.115 2.596 6.574.985 11.632.493 12.864 3.032 3.353 4.89 5.968 4.89 11.159 0 18.282-11.163 19.74-21.757 20.934 1.743 1.497 3.221 4.339 3.221 8.79 0 6.385-.056 14.286-.056 15.84 0 1.23.871 2.727 3.278 2.291C81.151 86.731 94 68.752 94 47.742 94 21.465 72.68 1.516 46.394 1.516zM18.422 66.858c-.246.19-.19.625.133.985.303.303.739.436.985.19.246-.19.19-.626-.133-.986-.303-.303-.739-.435-.985-.189zm-2.047-1.535c-.133.247.057.55.436.74.303.189.682.132.815-.133.133-.247-.057-.55-.436-.74-.379-.113-.682-.056-.815.133zm6.14 6.745c-.303.246-.189.815.247 1.175.436.435.985.492 1.232.189.246-.246.132-.815-.247-1.175-.417-.435-.985-.492-1.231-.189zm-2.16-2.785c-.303.19-.303.682 0 1.118.303.436.815.625 1.061.436.303-.247.303-.74 0-1.175-.265-.436-.758-.625-1.061-.379z" fill="#D1E2E2"/></g><defs><clipPath id="a"><path fill="#fff" d="M0 0h80v86.761H0z"/></clipPath></defs></svg>
